X:1
T:Title
%%score { ( 1 3 ) | 2 }
L:1/8
M:4/4
K:Eb
V:1 treble nm="Grand Piano"
V:3 treble 
V:2 treble 
V:1
 z4 z2[Q:1/4=92] BB | [Gc]>B BB GBBB |[M:3/4] [Gc]>B BB [EG]2 |[M:1/4] [B,EG]B | %4
[M:4/4] [GB]AFA [FA]GEG |[M:7/8] [EG]>FF F [B,DF]3 |[M:1/4] [B,DG][A,DF] | %7
[M:4/4] [G,E]>[G,E] [A,EA][Ec] cBGF | E>E [EA][Ec] [EB]2 [EG][Ge] | d>c BA [EG]2 [DF]2 | %10
[M:3/4] E6 |[M:1/4] [Ge]2 |[M:4/4] e>e ee d2 z E | B6 z2 | c>d ec B2 G2 | F6 z2 | %16
 E>E G[FA] [GB]2 [EG][EB] | [Ec]>[Ec] [Ec][Ec] B2 EF | G>G G[CEA] [B,EG]2 [A,DF]2 | %19
[M:3/4] [G,B,E]6 |] %20
V:2
 z4 z2 GG | .E,>G [G,B,EG]G [E,E]G[G,B,EG]G |[M:3/4] .E,>G [G,B,EG]G[K:bass] .E,2 |[M:1/4] G,G | %4
[M:4/4] B,,[K:treble]F[B,D]F[K:bass] E,E[G,B,]E |[M:7/8] B,, z/ D/[F,=A,E] E B,,3 |[M:1/4] B,,B,, | %7
[M:4/4] E,>E, C,[A,,A,] [E,A,E][E,G,E][E,B,E][E,A,E] | %8
 [E,G,]>[E,G,] [C,A,][A,,A,] [E,G,]2 [E,B,][E,B,] | %9
 [B,F]>[B,A] [B,G][B,F][K:bass] [B,,B,]2 [B,,A,]2 |[M:3/4] [E,G,]6 |[M:1/4] [E,B,]2 | %12
[M:4/4][K:treble] [A,CA]>[A,CA] [A,CA][A,CE] [A,B,E]2[K:bass] [A,E]A, | %13
 [E,G,E]2 [E,G,]2 [E,G,]2 [E,G,E]2 | [A,E]>[A,B,E] [A,CE][A,E] [E,G,E]2 [E,B,E]2 | %15
 [B,,B,]2 [B,,B,]2 [B,,B,]2 [B,,B,][B,,A,] | [E,G,]>[E,G,] [E,B,E][E,B,] [E,E]2 [E,B,][E,G,] | %17
 [A,,A,]>[A,,A,] [A,,A,][A,,A,] [E,G,E]2 [E,G,][E,A,E] | [E,B,E]>[E,B,E] [E,B,E]A,, B,,2 B,,2 | %19
[M:3/4] E,6 |] %20
V:3
 x8 | x8 |[M:3/4] x6 |[M:1/4] x2 |[M:4/4] x8 |[M:7/8] B, z z z z z2 |[M:1/4] x2 |[M:4/4] x8 | x8 | %9
 x8 |[M:3/4] x6 |[M:1/4] x2 |[M:4/4] z4 z2 c2 | z2 E2 E2 B2 | x8 | D2 D2 D2 [DG][DF] | x8 | x8 | %18
 x8 |[M:3/4] x6 |] %20

